bitmaps/svg/geda_close_all.svg

<?xml version="1.0" encoding="UTF-8" standalone="no"?>
<svg
   xmlns:dc="http://purl.org/dc/elements/1.1/"
   xmlns:svg="http://www.w3.org/2000/svg"
   xmlns="http://www.w3.org/2000/svg"
   xmlns:xlink="http://www.w3.org/1999/xlink"
   xmlns:sodipodi="http://sodipodi.sourceforge.net/DTD/sodipodi-0.dtd"
   xmlns:inkscape="http://www.inkscape.org/namespaces/inkscape"
   width="64px"
   height="64px"
   version="1.1"
   sodipodi:docname="geda_close_all.svg"
   inkscape:export-filename="../geda-close-all.png"
   inkscape:export-xdpi="67.5"
   inkscape:export-ydpi="67.5"
   id="svg1031"
   inkscape:version="0.48.3.1 r9886">
  <metadata
     id="metadata1105">
    <rdf:RDF>
      <cc:Work
         rdf:about="">
        <dc:format>image/svg+xml</dc:format>
        <dc:type
           rdf:resource="http://purl.org/dc/dcmitype/StillImage" />
        <dc:title></dc:title>
      </cc:Work>
    </rdf:RDF>
  </metadata>
  <defs
     id="defs2987">
    <radialGradient
       r="10.31934"
       fy="35.127438"
       fx="23.070683"
       cy="35.127438"
       cx="23.070683"
       gradientTransform="matrix(0.914812,0.01265023,-0.00821502,0.213562,2.253914,27.18889)"
       gradientUnits="userSpaceOnUse"
       id="radialGradient2177-3"
       xlink:href="#linearGradient2091-0"
       inkscape:collect="always" />
    <linearGradient
       id="linearGradient2091-0">
      <stop
         id="stop2093-9"
         offset="0"
         style="stop-color:#000000;stop-opacity:1;" />
      <stop
         id="stop2095-1"
         offset="1"
         style="stop-color:#000000;stop-opacity:0;" />
    </linearGradient>
    <radialGradient
       gradientUnits="userSpaceOnUse"
       gradientTransform="matrix(-2.1314195e-8,2.5479117,-4.8841578,-2.2328085e-8,144.16406,-10.748097)"
       r="18.500046"
       fy="24.500458"
       fx="6.5734448"
       cy="24.500458"
       cx="6.5734448"
       id="radialGradient7958-0"
       xlink:href="#linearGradient3165-7"
       inkscape:collect="always" />
    <linearGradient
       id="linearGradient3165-7">
      <stop
         id="stop3167-1"
         offset="0"
         style="stop-color:#e78181;stop-opacity:1" />
      <stop
         style="stop-color:#e15f5f;stop-opacity:1"
         offset="0.25"
         id="stop8599-3" />
      <stop
         id="stop8601-6"
         offset="0.680"
         style="stop-color:#c22f2f;stop-opacity:1" />
      <stop
         id="stop3169-3"
         offset="1"
         style="stop-color:#a40000;stop-opacity:1" />
    </linearGradient>
    <linearGradient
       gradientUnits="userSpaceOnUse"
       y2="43.000458"
       x2="23.099995"
       y1="6.0004601"
       x1="23.172504"
       id="linearGradient7961-1"
       xlink:href="#linearGradient7955-4"
       inkscape:collect="always" />
    <linearGradient
       id="linearGradient7955-4"
       inkscape:collect="always">
      <stop
         id="stop7957-6"
         offset="0"
         style="stop-color:#c22f2f;stop-opacity:1" />
      <stop
         id="stop7959-1"
         offset="1"
         style="stop-color:#a40000;stop-opacity:1" />
    </linearGradient>
    <linearGradient
       id="linearGradient7916-9">
      <stop
         id="stop7918-8"
         offset="0"
         style="stop-color:#ffffff;stop-opacity:1;" />
      <stop
         id="stop7920-5"
         offset="1.0000000"
         style="stop-color:#ffffff;stop-opacity:0" />
    </linearGradient>
    <linearGradient
       y2="36.296539"
       x2="12.717501"
       y1="17.041941"
       x1="31.972097"
       gradientTransform="matrix(1.0494758,-1.0494758,1.0494758,1.0494758,-26.939092,23.169297)"
       gradientUnits="userSpaceOnUse"
       id="linearGradient3933"
       xlink:href="#linearGradient7916-9"
       inkscape:collect="always" />
    <filter
       inkscape:collect="always"
       id="filter4035"
       x="-0.31406894"
       width="1.6281379"
       y="-0.22770"
       height="1.4554">
      <feGaussianBlur
         inkscape:collect="always"
         stdDeviation="2.0126026"
         id="feGaussianBlur4037" />
    </filter>
  </defs>
  <sodipodi:namedview
     id="base"
     pagecolor="#ffffff"
     bordercolor="#666666"
     borderopacity="1.0"
     inkscape:pageopacity="0.0"
     inkscape:pageshadow="2"
     inkscape:zoom="4"
     inkscape:cx="20.070124"
     inkscape:cy="2.4606555"
     inkscape:current-layer="layer3"
     showgrid="true"
     inkscape:document-units="px"
     inkscape:grid-bbox="true"
     showguides="true"
     inkscape:guide-bbox="true"
     inkscape:window-width="1155"
     inkscape:window-height="782"
     inkscape:window-x="248"
     inkscape:window-y="38"
     inkscape:window-maximized="0">
    <sodipodi:guide
       orientation="1,0"
       position="0,23"
       id="guide4048" />
    <sodipodi:guide
       orientation="1,0"
       position="24,49.875"
       id="guide4050" />
    <sodipodi:guide
       orientation="1,0"
       position="48,47.734375"
       id="guide4052" />
    <sodipodi:guide
       orientation="1,0"
       position="16.0,45.630484"
       id="guide4054" />
    <sodipodi:guide
       orientation="0,1"
       position="38.360543,0"
       id="guide4094" />
    <sodipodi:guide
       orientation="0,1"
       position="-53.46875,-24"
       id="guide4096" />
  </sodipodi:namedview>
  <g
     inkscape:groupmode="layer"
     id="layer2"
     inkscape:label="document">
    <use
       x="0"
       y="0"
       xlink:href="#g4144"
       id="use4152"
       transform="matrix(0.84344375,0.53721749,-0.53721749,0.84344375,47.402841,10.277409)"
       width="64"
       height="64" />
    <use
       x="0"
       y="0"
       xlink:href="#rect3991"
       id="use4114"
       transform="matrix(0.47915458,0,0,0.47915458,-0.51251517,62.668776)"
       width="64"
       height="64" />
    <g
       id="g4144"
       transform="matrix(1.276854,0,0,1.276854,-0.48128019,-18.894955)">
      <rect
         style="fill:#ffffff;fill-opacity:1;fill-rule:nonzero;stroke:#7d7d7d;stroke-width:1;stroke-linecap:round;stroke-linejoin:round;stroke-miterlimit:4;stroke-opacity:1;stroke-dasharray:none;stroke-dashoffset:0"
         id="rect4120"
         width="8.5096235"
         height="10.011331"
         x="2.23839"
         y="68.74881"
         ry="0.63708377" />
      <path
         style="fill:none;stroke:#dedede;stroke-width:1;stroke-linecap:butt;stroke-linejoin:miter;stroke-miterlimit:4;stroke-opacity:1;stroke-dasharray:none"
         d="m 3.4917606,77.260743 2.9998415,0"
         id="path4122"
         inkscape:connector-curvature="0"
         sodipodi:nodetypes="cc" />
      <path
         sodipodi:nodetypes="cc"
         style="fill:none;stroke:#dedede;stroke-width:1;stroke-linecap:butt;stroke-linejoin:miter;stroke-miterlimit:4;stroke-opacity:1;stroke-dasharray:none"
         d="m 3.4935382,75.719139 6.0032387,0"
         id="path4126"
         inkscape:connector-curvature="0" />
      <path
         sodipodi:nodetypes="cc"
         inkscape:connector-curvature="0"
         id="path4128"
         d="m 3.4917606,73.889363 2.9998415,0"
         style="fill:none;stroke:#dedede;stroke-width:1;stroke-linecap:butt;stroke-linejoin:miter;stroke-miterlimit:4;stroke-opacity:1;stroke-dasharray:none" />
      <path
         sodipodi:nodetypes="cc"
         style="fill:none;stroke:#dedede;stroke-width:1;stroke-linecap:butt;stroke-linejoin:miter;stroke-miterlimit:4;stroke-opacity:1;stroke-dasharray:none"
         d="m 3.4935382,72.33047 6.0032387,0"
         id="path4130"
         inkscape:connector-curvature="0" />
      <path
         sodipodi:nodetypes="cc"
         style="fill:none;stroke:#dedede;stroke-width:1;stroke-linecap:butt;stroke-linejoin:miter;stroke-miterlimit:4;stroke-opacity:1;stroke-dasharray:none"
         d="m 3.4935382,70.750005 6.0032387,0"
         id="path4134"
         inkscape:connector-curvature="0" />
    </g>
  </g>
  <g
     inkscape:groupmode="layer"
     id="layer3"
     inkscape:label="cross">
    <g
       id="g3063"
       inkscape:export-filename="geda-close-all.png"
       inkscape:export-xdpi="72"
       inkscape:export-ydpi="72">
      <use
         height="64"
         width="64"
         transform="matrix(0.95588294,0.29374786,-0.29374786,0.95588294,19.002222,1.9979348)"
         id="use3989"
         xlink:href="#use3987"
         y="0"
         x="0" />
      <use
         height="64"
         width="64"
         transform="matrix(0.9756233,0.219452,-0.219452,0.9756233,16.417778,3.4268038)"
         id="use4009"
         xlink:href="#rect3991"
         y="0"
         x="0" />
      <use
         height="64"
         width="64"
         transform="matrix(0.97550556,0.21997482,-0.21997482,0.97550556,16.467576,3.3647699)"
         id="use3987"
         xlink:href="#g3837"
         y="0"
         x="0" />
      <rect
         ry="2.289192"
         y="19.098719"
         x="13.965359"
         height="21.213202"
         width="15.379573"
         id="rect3991"
         style="fill:#000000;fill-opacity:1;fill-rule:nonzero;stroke:none;filter:url(#filter4035)" />
      <g
         transform="matrix(1.3339116,0,0,1.3339116,2.574019,-85.670844)"
         id="g3837">
        <rect
           style="fill:#ffffff;fill-opacity:1;fill-rule:nonzero;stroke:#7d7d7d;stroke-width:1;stroke-linecap:round;stroke-linejoin:round;stroke-miterlimit:4;stroke-opacity:1;stroke-dasharray:none;stroke-dashoffset:0"
           id="rect3052"
           width="16.999998"
           height="20.000017"
           x="2.5909092"
           y="73.954544"
           ry="1.2727265" />
        <path
           style="fill:none;stroke:#dedede;stroke-width:1px;stroke-linecap:butt;stroke-linejoin:miter;stroke-opacity:1"
           d="m 5.0948153,90.959162 5.9928977,0"
           id="path3823"
           inkscape:connector-curvature="0"
           sodipodi:nodetypes="cc" />
        <path
           inkscape:connector-curvature="0"
           id="path3825"
           d="m 5.0983665,88.948508 11.9928985,0"
           style="fill:none;stroke:#dedede;stroke-width:1px;stroke-linecap:butt;stroke-linejoin:miter;stroke-opacity:1"
           sodipodi:nodetypes="cc" />
        <path
           sodipodi:nodetypes="cc"
           style="fill:none;stroke:#dedede;stroke-width:1px;stroke-linecap:butt;stroke-linejoin:miter;stroke-opacity:1"
           d="m 5.0983665,86.952414 11.9928985,0"
           id="path3827"
           inkscape:connector-curvature="0" />
        <path
           sodipodi:nodetypes="cc"
           inkscape:connector-curvature="0"
           id="path3829"
           d="m 5.0948153,83.959162 5.9928977,0"
           style="fill:none;stroke:#dedede;stroke-width:1px;stroke-linecap:butt;stroke-linejoin:miter;stroke-opacity:1" />
        <path
           sodipodi:nodetypes="cc"
           style="fill:none;stroke:#dedede;stroke-width:1px;stroke-linecap:butt;stroke-linejoin:miter;stroke-opacity:1"
           d="m 5.0983665,81.948508 11.9928985,0"
           id="path3831"
           inkscape:connector-curvature="0" />
        <path
           inkscape:connector-curvature="0"
           id="path3833"
           d="m 5.0983665,79.952414 11.9928985,0"
           style="fill:none;stroke:#dedede;stroke-width:1px;stroke-linecap:butt;stroke-linejoin:miter;stroke-opacity:1"
           sodipodi:nodetypes="cc" />
        <path
           sodipodi:nodetypes="cc"
           style="fill:none;stroke:#dedede;stroke-width:1px;stroke-linecap:butt;stroke-linejoin:miter;stroke-opacity:1"
           d="m 5.0983665,77.952414 11.9928985,0"
           id="path3835"
           inkscape:connector-curvature="0" />
      </g>
      <g
         transform="matrix(0.83206021,0,0,0.83206021,25.311861,-0.06016356)"
         id="layer1-9"
         inkscape:label="Layer 1">
        <path
           sodipodi:type="arc"
           style="opacity:0.2557078;fill:url(#radialGradient2177-3);fill-opacity:1;stroke:none"
           id="path1361"
           sodipodi:cx="22.958872"
           sodipodi:cy="34.94062"
           sodipodi:rx="10.31934"
           sodipodi:ry="2.320194"
           d="m 33.278212,34.94062 c 0,1.281408 -4.620126,2.320194 -10.31934,2.320194 -5.699214,0 -10.31934,-1.038786 -10.31934,-2.320194 0,-1.281407 4.620126,-2.320194 10.31934,-2.320194 5.699214,0 10.31934,1.038787 10.31934,2.320194 z"
           transform="matrix(2.2288248,0,0,1.9190478,-27.171303,-25.505284)" />
        <path
           inkscape:connector-curvature="0"
           style="font-size:59.90107727px;font-style:normal;font-variant:normal;font-weight:bold;font-stretch:normal;text-align:start;line-height:125%;writing-mode:lr-tb;text-anchor:start;fill:url(#radialGradient7958-0);fill-opacity:1;stroke:url(#linearGradient7961-1);stroke-width:1;stroke-linecap:butt;stroke-linejoin:round;stroke-miterlimit:4;stroke-opacity:1;stroke-dasharray:none;font-family:Bitstream Vera Sans"
           d="m 42.5,35.000459 -10.50009,-11 10.500001,-10 L 34.99991,6.5004602 24.499911,17.000459 13.999912,6.5004602 6.4999133,14.000459 l 10.4999977,10 -10.4999977,11 7.4999987,7.499999 10.499999,-10.5 9.5,10.5 L 42.5,35.000459 z"
           id="text1314"
           sodipodi:nodetypes="ccccccccccccc" />
        <path
           inkscape:connector-curvature="0"
           style="font-size:59.90107727px;font-style:normal;font-variant:normal;font-weight:bold;font-stretch:normal;text-align:start;line-height:125%;writing-mode:lr-tb;text-anchor:start;opacity:0.4;fill:none;stroke:url(#linearGradient3933);stroke-width:1;stroke-linecap:butt;stroke-linejoin:round;stroke-miterlimit:4;stroke-opacity:1;stroke-dasharray:none;font-family:Bitstream Vera Sans"
           d="m 41,35.000459 -10.50009,-11 10.5,-10 -6,-5.9999998 L 24.50022,18.500459 13.999912,8.0004592 7.9999123,14.000459 l 10.4999987,10 -10.4999987,11 5.9999997,6 10.499999,-10.5 L 34,41 41,35.000459 z"
           id="path7076"
           sodipodi:nodetypes="ccccccccccccc" />
      </g>
    </g>
    <use
       x="0"
       y="0"
       xlink:href="#layer1-9"
       id="use4098"
       transform="matrix(0.378,0,0,0.378,-0.17347528,63.825548)"
       width="64"
       height="64" />
  </g>
  <g
     id="geda-close-all"
     inkscape:label="geda-close-all"
     inkscape:groupmode="layer"
     style="opacity:0.8;display:none"
     sodipodi:insensitive="true">
  </g>
</svg>

<?xml version="1.0" encoding="UTF-8" standalone="no"?>
<svg id="geda-close-all" width="64px" height="64px"
   xmlns:svg="http://www.w3.org/2000/svg"
   xmlns="http://www.w3.org/2000/svg"
   xmlns:xlink="http://www.w3.org/1999/xlink"
   xmlns:inkscape="http://www.inkscape.org/namespaces/inkscape"
   inkscape:export-filename="../geda-close-all.png"
   inkscape:export-xdpi="67.5"
   inkscape:export-ydpi="67.5">
  <defs
     id="defs2987">
    <radialGradient
       id="radialGradient2177-3"
       cx="23.071"
       cy="35.127"
       r="10.319"
       gradientTransform="matrix(.91481 .01265 -.008215 .21356 2.2539 27.189)"
       gradientUnits="userSpaceOnUse">
      <stop
         id="stop2093-9"
         offset="0" />
      <stop
         id="stop2095-1"
         stop-opacity="0"
         offset="1" />
    </radialGradient>
    <radialGradient
       id="radialGradient7958-0"
       cx="6.5734"
       cy="24.5"
       r="18.5"
       gradientTransform="matrix(-2.1314e-8 2.5479 -4.8842 -2.2328e-8 144.16 -10.748)"
       gradientUnits="userSpaceOnUse">
      <stop
         id="stop3167-1"
         stop-color="#e78181"
         offset="0" />
      <stop
         id="stop8599-3"
         stop-color="#e15f5f"
         offset=".25" />
      <stop
         id="stop8601-6"
         stop-color="#c22f2f"
         offset=".68" />
      <stop
         id="stop3169-3"
         stop-color="#a40000"
         offset="1" />
    </radialGradient>
    <linearGradient
       id="linearGradient7961-1"
       x1="23.173"
       x2="23.1"
       y1="6.0005"
       y2="43"
       gradientUnits="userSpaceOnUse">
      <stop
         id="stop7957-6"
         stop-color="#c22f2f"
         offset="0" />
      <stop
         id="stop7959-1"
         stop-color="#a40000"
         offset="1" />
    </linearGradient>
    <linearGradient
       id="linearGradient3933"
       x1="31.972"
       x2="12.718"
       y1="17.042"
       y2="36.297"
       gradientTransform="matrix(1.0495 -1.0495 1.0495 1.0495 -26.939 23.169)"
       gradientUnits="userSpaceOnUse">
      <stop
         id="stop7918-8"
         stop-color="#fff"
         offset="0" />
      <stop
         id="stop7920-5"
         stop-color="#fff"
         stop-opacity="0"
         offset="1" />
    </linearGradient>
    <filter
       id="filter4035"
       x="-.31407"
       y="-.2277"
       width="1.6281"
       height="1.4554">
      <feGaussianBlur
         id="feGaussianBlur4037"
         stdDeviation="2.0126026" />
    </filter>
    <radialGradient
       inkscape:collect="always"
       xlink:href="#radialGradient2177-3"
       id="radialGradient3067"
       gradientUnits="userSpaceOnUse"
       gradientTransform="matrix(0.91481,0.01265,-0.008215,0.21356,2.2539,27.189)"
       cx="23.071"
       cy="35.127"
       r="10.319" />
    <radialGradient
       inkscape:collect="always"
       xlink:href="#radialGradient7958-0"
       id="radialGradient3069"
       gradientUnits="userSpaceOnUse"
       gradientTransform="matrix(-2.1314e-8,2.5479,-4.8842,-2.2328e-8,144.16,-10.748)"
       cx="6.5734"
       cy="24.5"
       r="18.5" />
    <linearGradient
       inkscape:collect="always"
       xlink:href="#linearGradient7961-1"
       id="linearGradient3071"
       gradientUnits="userSpaceOnUse"
       x1="23.173"
       y1="6.0005"
       x2="23.1"
       y2="43" />
    <linearGradient
       inkscape:collect="always"
       xlink:href="#linearGradient3933"
       id="linearGradient3073"
       gradientUnits="userSpaceOnUse"
       gradientTransform="matrix(1.0495,-1.0495,1.0495,1.0495,-26.939,23.169)"
       x1="31.972"
       y1="17.042"
       x2="12.718"
       y2="36.297" />
    <radialGradient
       inkscape:collect="always"
       xlink:href="#radialGradient2177-3"
       id="radialGradient3094"
       gradientUnits="userSpaceOnUse"
       gradientTransform="matrix(0.91481,0.01265,-0.008215,0.21356,2.2539,27.189)"
       cx="23.071"
       cy="35.127"
       r="10.319" />
    <radialGradient
       inkscape:collect="always"
       xlink:href="#radialGradient7958-0"
       id="radialGradient3096"
       gradientUnits="userSpaceOnUse"
       gradientTransform="matrix(-2.1314e-8,2.5479,-4.8842,-2.2328e-8,144.16,-10.748)"
       cx="6.5734"
       cy="24.5"
       r="18.5" />
    <linearGradient
       inkscape:collect="always"
       xlink:href="#linearGradient7961-1"
       id="linearGradient3098"
       gradientUnits="userSpaceOnUse"
       x1="23.173"
       y1="6.0005"
       x2="23.1"
       y2="43" />
    <linearGradient
       inkscape:collect="always"
       xlink:href="#linearGradient3933"
       id="linearGradient3100"
       gradientUnits="userSpaceOnUse"
       gradientTransform="matrix(1.0495,-1.0495,1.0495,1.0495,-26.939,23.169)"
       x1="31.972"
       y1="17.042"
       x2="12.718"
       y2="36.297" />
  </defs>
  <g
     id="g3063"
     transform="matrix(1.0673201,0,0,1.1712689,-5.1565953,-5.1844106)">
    <use
       y="0"
       x="0"
       xlink:href="#use3987"
       height="64"
       width="64"
       transform="matrix(0.95588,0.29375,-0.29375,0.95588,19.002,1.9979)"
       id="use3989" />
    <use
       y="0"
       x="0"
       xlink:href="#rect3991"
       height="64"
       width="64"
       transform="matrix(0.97562,0.21945,-0.21945,0.97562,16.418,3.4268)"
       id="use4009" />
    <use
       y="0"
       x="0"
       xlink:href="#g3837"
       height="64"
       width="64"
       transform="matrix(0.97551,0.21997,-0.21997,0.97551,16.468,3.3648)"
       id="use3987" />
    <rect
       style="filter:url(#filter4035)"
       ry="2.2892001"
       height="21.212999"
       width="15.38"
       y="19.099001"
       x="13.965"
       id="rect3991" />
    <g
       transform="matrix(1.3339,0,0,1.3339,2.574,-85.671)"
       id="g3837">
      <rect
         style="fill:#ffffff;stroke:#7d7d7d;stroke-linecap:round;stroke-linejoin:round"
         ry="1.2727"
         height="20"
         width="17"
         y="73.955002"
         x="2.5908999"
         id="rect3052" />
      <path
         style="fill:none;stroke:#dedede;stroke-width:1px"
         inkscape:connector-curvature="0"
         d="m 5.0948,90.959 h 5.9929"
         id="path3823" />
      <path
         style="fill:none;stroke:#dedede;stroke-width:1px"
         inkscape:connector-curvature="0"
         d="m 5.0984,88.949 h 11.993"
         id="path3825" />
      <path
         style="fill:none;stroke:#dedede;stroke-width:1px"
         inkscape:connector-curvature="0"
         d="m 5.0984,86.952 h 11.993"
         id="path3827" />
      <path
         style="fill:none;stroke:#dedede;stroke-width:1px"
         inkscape:connector-curvature="0"
         d="m 5.0948,83.959 h 5.9929"
         id="path3829" />
      <path
         style="fill:none;stroke:#dedede;stroke-width:1px"
         inkscape:connector-curvature="0"
         d="m 5.0984,81.949 h 11.993"
         id="path3831" />
      <path
         style="fill:none;stroke:#dedede;stroke-width:1px"
         inkscape:connector-curvature="0"
         d="m 5.0984,79.952 h 11.993"
         id="path3833" />
      <path
         style="fill:none;stroke:#dedede;stroke-width:1px"
         inkscape:connector-curvature="0"
         d="m 5.0984,77.952 h 11.993"
         id="path3835" />
    </g>
    <g
       transform="matrix(0.83206,0,0,0.83206,25.312,-0.060164)"
       id="layer1-9">
      <path
         inkscape:connector-curvature="0"
         style="opacity:0.25571002;fill:url(#radialGradient3094)"
         d="m 33.278,34.941 c 0,1.2814 -4.6201,2.3202 -10.319,2.3202 -5.6989,0 -10.319,-1.0388 -10.319,-2.3202 0,-1.2814 4.6201,-2.3202 10.319,-2.3202 5.6989,0 10.319,1.0388 10.319,2.3202 z"
         transform="matrix(2.2288,0,0,1.919,-27.171,-25.505)"
         id="path1361" />
      <path
         inkscape:connector-curvature="0"
         style="fill:url(#radialGradient3096);stroke:url(#linearGradient3098);stroke-linejoin:round"
         d="M 42.5,35 32,24 42.5,14 35,6.5 24.5,17 14,6.5 6.5,14 17,24 6.5,35 14,42.5 24.5,32 34,42.5 42.5001,35 z"
         id="text1314" />
      <path
         inkscape:connector-curvature="0"
         style="opacity:0.4;fill:none;stroke:url(#linearGradient3100);stroke-linejoin:round"
         d="M 41,35 30.5,24 41,14 35,8 24.5,18.5 14,8 8,14 18.5,24 8,35 l 6,6 10.5,-10.5 9.5001,10.5 7,-5.9995 z"
         id="path7076" />
    </g>
  </g>
</svg>
